X:18333
T:Vo Luzern...
R:
O:
S:source
B:Frau Nachtigall (Straburg - 1928)
Z:<anamnese@caramail.com> -- http://anamnese.fr.st
N:p.123
M:2/4
L:1/8
Q:1/4=130
K:E
B, E E D/E/ | F C F2 | D D/c/ B2 | E E/c/ B2 | B, E E D/E/ | F C F2 |
D D/c/ B D | E2 z2 | e2 c2 | B B/ G/ E2 | D D/c/ B2 | E E/c/ B2 | 
e2 c2 | B B/ G/ E2 | D D/c/ B2 | E2 z2 |]
